X:33
T:Northampton Groves. RHu.033
S:R.Hughes MS,1823,Whitchurch,Shrops.
A:Whitchurch, Shropshire
Z:Neil Brookes 2006
M:6/8
L:1/8
Q:3/8=120
R:Jig
K:D
d|dfd AFA|dfd ege|dfd AFA|gec d2::!
f/g/|afd’ afd|egd cBA|gbb faa|gecd2:|

